X: 18433
T: Hunting The Hare
R: slip jig
M: 9/8
K: Dmajor
F2A AFA d2A|Bcd e2d cBA|F2A AFA d2A|Bcd edc dBA|
F2A AFA d2A|Bcd e2d cBA|FAA AFA d2A|Bcd edc d2e||
f2d def g2e|a2f efd cBA|fef def g2e|a2f edc d2e|
f2d def g2e|a2f efd cBA|f3 def g2e|a2f edc d2A||

